X: 357
T: 358. Meine Seele erhebet den Herrn
N: Derived from chor358.krn
C: Johann Sebastian Bach
%%abc-version 2.0
%%abcx-abcm2ps-target-version 5.9.1 (29 Sep 2008)
%%abc-creator hum2abc beta
%%abcx-conversion-date 2019/03/11 17:28:19
%%abc-edited-by Craig Stuart Sapp
%%humdrum-veritas 1189681693
%%humdrum-veritas-data 4116473688
%%
%%barnumbers 0
L: 1/4
M: C
%%staves [1 2 3 4]
V: 1 clef=treble
V: 2 clef=treble
V: 3 clef=treble-8
V: 4 clef=bass
K: Bb
[V:1] d2f2 | 
[V:2] G2F2 | 
[V:3] B2c2 | 
[V:4] G,2A,2 | 
[V:1] dddd | 
[V:2] F^FGA | 
[V:3] dcBA | 
[V:4] B,A,G,^F, | 
[V:1] e2d2 | 
[V:2] G=F2F | 
[V:3] Bc2B | 
[V:4] G,A,B,G, | 
[V:1] c2c2 | 
[V:2] G2F2 | 
[V:3] B2A2 | 
[V:4] E,C,F,2 | 
[V:1] !fermata!B4 | 
[V:2] !fermata!F4 | 
[V:3] !fermata!d4 | 
[V:4] !fermata!B,,4 | 
[V:1] d2f2 | 
[V:2] F4 | 
[V:3] B4 | 
[V:4] B,2D,2 | 
[V:1] cccG | 
[V:2] FFEG | 
[V:3] AcGc | 
[V:4] F,A,CE, | 
[V:1] B2A2 | 
[V:2] G2^F2 | 
[V:3] d3c | 
[V:4] D,C,D,2 | 
[V:1] !fermata!G4 | 
[V:2] !fermata!D4 | 
[V:3] !fermata!B4 | 
[V:4] !fermata!G,,4 | 
[V:1] d2f2 | 
[V:2] G2A2 | 
[V:3] B2c2 | 
[V:4] G,2F,2 | 
[V:1] dddd | 
[V:2] F3^F | 
[V:3] dcBA | 
[V:4] B,CD2- | 
[V:1] e2d2 | 
[V:2] GAB2- | 
[V:3] BcFf | 
[V:4] DCB,B,, | 
[V:1] c2c2 | 
[V:2] BBBA | 
[V:3] g2fc | 
[V:4] E,C,F,2 | 
[V:1] !fermata!B4 | 
[V:2] !fermata!F4 | 
[V:3] !fermata!d4 | 
[V:4] !fermata!B,,4 | 
[V:1] d2f2 | 
[V:2] z4 | 
[V:3] z2FG | 
[V:4] B,,C,D,E, | 
[V:1] cccc | 
[V:2] FGAB | 
[V:3] ABc2- | 
[V:4] F,3G, | 
[V:1] c2GA | 
[V:2] c2C2 | 
[V:3] cd=e^f | 
[V:4] A,B,C2 | 
[V:1] B2A2 | 
[V:2] D2DC | 
[V:3] g2=f_e | 
[V:4] B,,C,D,_E, | 
[V:1] G4- | 
[V:2] =B,DGF | 
[V:3] d=Bcd- | 
[V:4] F,2E,D, | 
[V:1] G4- | 
[V:2] E4- | 
[V:3] dGc2- | 
[V:4] C,D,E,F, | 
[V:1] G4- | 
[V:2] E2DC | 
[V:3] c2=BA | 
[V:4] G,4 | 
[V:1] !fermata!G4 |]  
[V:2] !fermata!D4 |]  
[V:3] !fermata!=B4 |]  
[V:4] !fermata!G,,4 |]  



